brandFactory_export/2.Regular/Electrocardiograma_2Regular.svg

<?xml version="1.0" encoding="UTF-8"?>
<svg width="24px" height="24px" viewBox="0 0 24 24" version="1.1" xmlns="http://www.w3.org/2000/svg" xmlns:xlink="http://www.w3.org/1999/xlink">
    <title>2.Regular/Electrocardiograma_2Regular</title>
    <g id="Symbols" stroke="none" stroke-width="1" fill="none" fill-rule="evenodd">
        <g id="2.Regular/Electrocardiograma_2Regular" fill="#5CB615" fill-rule="nonzero">
            <path d="M17.8857143,14.9361345 C16.6857143,16.8252101 15.7310924,18.0386555 14.1008403,19.7428571 L14.0504202,19.7932773 L14.0302521,19.8168067 C13.7411765,20.1159664 13.3142857,20.5260504 13.005042,20.7478992 C12.7462185,20.9394958 12.4504202,21.0739496 12.1344538,21.1445378 C12.0806723,21.1579832 12.0235294,21.1647059 11.9663866,21.1680672 L11.8857143,21.1680672 L11.8420168,21.1714286 L11.7882353,21.1680672 L11.7747899,21.1680672 C11.7042017,21.1647059 11.6336134,21.1512605 11.5630252,21.1378151 C11.2571429,21.0672269 10.9714286,20.9327731 10.7193277,20.7478992 C10.4,20.5159664 9.95294118,20.0857143 9.66722689,19.7865546 C8.02352941,18.0621849 7.05882353,16.8386555 5.8487395,14.9361345 C5.62352941,14.5831933 5.42857143,14.2268908 5.22352941,13.8739496 L5.46218487,13.8739496 C5.78823529,13.8739496 6.07058824,13.6588235 6.16470588,13.3495798 L7.6907563,8.35798319 L9.5697479,17.887395 C9.63697479,18.2235294 9.91596639,18.4689076 10.2554622,18.4857143 L10.292437,18.4857143 C10.6184874,18.4857143 10.9008403,18.2705882 10.994958,17.9579832 L12.194958,13.9781513 L13.4252101,13.9781513 C13.7512605,13.9781513 14.0369748,13.7630252 14.1310924,13.4436975 L14.8840336,10.8453782 L15.794958,13.4806723 C15.8957983,13.7764706 16.1747899,13.9781513 16.487395,13.9781513 L18.4504202,13.9781513 C18.2655462,14.297479 18.0941176,14.6168067 17.8857143,14.9361345 M2.80672269,8.04201681 C2.53109244,6.86890756 2.28571429,4.71092437 3.74789916,3.44369748 C4.38655462,2.88907563 5.27731092,2.55630252 6.25546218,2.50588235 C6.34621849,2.50252101 6.43361345,2.49915966 6.52436975,2.49915966 C7.5394958,2.49915966 8.59495798,2.79159664 9.57647059,3.34285714 C10.0134454,3.58823529 10.4638655,3.85042017 10.9781513,4.16302521 C11.5361345,4.48235294 12.2252101,4.47563025 12.7798319,4.14957983 C13.2705882,3.85378151 13.7210084,3.59159664 14.1579832,3.34285714 C15.1428571,2.79159664 16.1983193,2.49915966 17.210084,2.49915966 C17.297479,2.49915966 17.3915966,2.50252101 17.4789916,2.50588235 C18.4571429,2.55630252 19.3478992,2.88907563 19.9865546,3.44369748 C21.4487395,4.71092437 21.2033613,6.87226891 20.9243697,8.04201681 C20.5848739,9.48739496 20.0134454,10.9798319 19.2537815,12.4890756 L17.005042,12.4890756 L15.5092437,8.1697479 C15.4151261,7.85714286 15.1226891,7.65210084 14.7966387,7.67226891 C14.4773109,7.68235294 14.1983193,7.89747899 14.1109244,8.20672269 L12.8739496,12.4890756 L11.6470588,12.4890756 C11.3210084,12.4890756 11.0352941,12.7042017 10.9445378,13.0168067 L10.4369748,14.697479 L8.56134454,5.19159664 C8.49747899,4.85882353 8.21848739,4.61344538 7.8789916,4.59327731 C7.5394958,4.56638655 7.22689076,4.78823529 7.13613445,5.11764706 L4.91428571,12.3848739 L4.42016807,12.3848739 C3.69747899,10.9092437 3.1394958,9.4605042 2.80672269,8.04201681 M22.887395,12.4890756 L20.897479,12.4890756 C21.5428571,11.1042017 22.0436975,9.72941176 22.3596639,8.38823529 C22.9714286,5.79327731 22.4672269,3.63529412 20.9478992,2.31428571 C20.0638655,1.54789916 18.8605042,1.08739496 17.5596639,1.02016807 C17.4453782,1.01344538 17.3277311,1.01008403 17.2134454,1.01008403 C15.9495798,1.01008403 14.6554622,1.36302521 13.4487395,2.04201681 C12.9714286,2.31092437 12.5008403,2.58319328 12.0336134,2.86554622 C11.9327731,2.92268908 11.8084034,2.92268908 11.707563,2.86554622 C11.2067227,2.56302521 10.7428571,2.29411765 10.2957983,2.04201681 C9.08907563,1.36302521 7.79159664,1.01008403 6.52773109,1.01008403 C6.41344538,1.01008403 6.29915966,1.01344538 6.18487395,1.02016807 C4.88403361,1.08739496 3.67731092,1.54789916 2.79663866,2.31428571 C1.27058824,3.63529412 0.766386555,5.79327731 1.37815126,8.38823529 C1.68739496,9.69915966 2.16806723,11.0369748 2.78655462,12.3848739 L0.736134454,12.3848739 C0.32605042,12.3882353 -0.00336134454,12.7210084 -2.54973021e-05,13.1310924 C-2.54973021e-05,13.5411765 0.329411765,13.8739496 0.736134454,13.8739496 L3.51596639,13.8739496 C3.85210084,14.4957983 4.21512605,15.1176471 4.61512605,15.7428571 C5.88235294,17.7361345 6.8907563,19.0168067 8.62184874,20.8252101 C8.78991597,21 9.37478992,21.5983193 9.87226891,21.9613445 C10.2991597,22.2739496 10.7798319,22.492437 11.2638655,22.5966387 C11.4084034,22.6302521 11.5563025,22.6504202 11.7042017,22.6605042 L11.7243697,22.6605042 C11.7647059,22.6638655 11.8084034,22.6638655 11.8521008,22.6638655 L11.892437,22.6638655 C11.9394958,22.6638655 11.9798319,22.6605042 12.0235294,22.6605042 L12.0403361,22.6605042 C12.1882353,22.6537815 12.3361345,22.6302521 12.4806723,22.5966387 C12.9613445,22.492437 13.4453782,22.2739496 13.8722689,21.9613445 C14.3697479,21.6016807 14.9546218,21 15.1226891,20.8252101 L15.1630252,20.7815126 C16.8672269,18.9966387 17.8722689,17.7193277 19.1294118,15.7428571 C19.5058824,15.1546218 19.8487395,14.5630252 20.1680672,13.9747899 L22.8941176,13.9747899 C23.3008403,13.9714286 23.6302521,13.6386555 23.6302521,13.2319328 C23.6268908,12.8252101 23.297479,12.492437 22.887395,12.4890756" id="Electrocardiograma_2Regular"></path>
        </g>
    </g>
</svg>

<svg width="24" height="24" viewBox="0 0 24 24" xmlns="http://www.w3.org/2000/svg"><path d="M17.886 14.936c-1.2 1.89-2.155 3.103-3.785 4.807l-.05.05-.02.024c-.29.299-.717.71-1.026.93a2.305 2.305 0 01-.87.398.92.92 0 01-.169.023h-.08l-.044.003-.054-.003h-.013a1.53 1.53 0 01-.212-.03 2.304 2.304 0 01-.844-.39c-.319-.232-.766-.662-1.052-.961-1.643-1.725-2.608-2.948-3.818-4.85-.225-.354-.42-.71-.625-1.063h.238a.735.735 0 00.703-.524L7.69 8.358l1.879 9.53a.737.737 0 00.685.598h.037a.734.734 0 00.703-.528l1.2-3.98h1.23a.736.736 0 00.706-.534l.753-2.599.911 2.636c.1.295.38.497.692.497h1.963c-.184.32-.356.639-.564.958M2.806 8.042c-.275-1.173-.52-3.331.942-4.598.639-.555 1.53-.888 2.507-.938.091-.003.179-.007.27-.007 1.014 0 2.07.293 3.051.844.437.245.888.507 1.402.82.558.32 1.247.313 1.802-.013.49-.296.941-.558 1.378-.807.985-.551 2.04-.844 3.052-.844.087 0 .182.004.269.007.978.05 1.869.383 2.508.938 1.462 1.267 1.216 3.428.937 4.598-.34 1.445-.91 2.938-1.67 4.447h-2.249l-1.496-4.32a.697.697 0 00-.712-.497.737.737 0 00-.686.535l-1.237 4.282h-1.227a.731.731 0 00-.702.528l-.508 1.68-1.876-9.505a.737.737 0 00-.682-.599.716.716 0 00-.743.525l-2.222 7.267H4.42c-.723-1.476-1.28-2.924-1.613-4.343m20.08 4.447h-1.99c.646-1.385 1.147-2.76 1.463-4.1.611-2.596.107-4.754-1.412-6.075-.884-.766-2.087-1.227-3.388-1.294a5.952 5.952 0 00-.347-.01c-1.263 0-2.558.353-3.764 1.032-.478.269-.948.541-1.415.824a.331.331 0 01-.326 0c-.501-.303-.965-.572-1.412-.824C9.089 1.363 7.792 1.01 6.528 1.01c-.115 0-.229.003-.343.01-1.301.067-2.508.528-3.388 1.294C1.27 3.635.767 5.794 1.378 8.388c.31 1.311.79 2.649 1.409 3.997H.737A.74.74 0 000 13.13c0 .41.33.743.736.743h2.78c.336.622.7 1.244 1.1 1.869 1.266 1.993 2.275 3.274 4.006 5.082.168.175.753.773 1.25 1.136.427.313.908.531 1.392.636.144.033.292.053.44.064h.02c.04.003.084.003.128.003h.04c.047 0 .088-.003.132-.003h.016a2.44 2.44 0 00.44-.064 3.72 3.72 0 001.392-.636c.498-.36 1.083-.961 1.25-1.136l.041-.043c1.704-1.785 2.71-3.063 3.966-5.04.377-.587.72-1.179 1.04-1.767h2.725a.744.744 0 00.736-.743.75.75 0 00-.743-.743" fill="#5CB615" fill-rule="nonzero"/></svg>
